X: 26652
T: Midlothian
R: reel
M: 4/4
K: Dmajor
B|ADFA GBEG|FDAF EB,B,B|ADFA GBEF|FAEG FDDB|
ADFA GBEG|FDAF EB,B,G|FAd=c BGed|cAag fdd||
f/g/|afdf gbeg|afed cecA|a/g/f/e/ fd gbeg|faeg fddg|
a/g/f/e/ fd gbeg|fafd cecA|BdAd GdFd|EBA>G FDD||

